X:81
T:Opera Hornpipe, The
S:John Moore's Book 2
Z:Transcribed by Edmund Spriggs 05/2021
%%VWML: Moore1-4494-p63-0
F:http://www.vwml.org/record/Moore2/4494/p63
M:2/4
R:Hornpipe
N:MS or MJ is written to the right of the title in the manuscript.
L:1/8
K:D
A|d/>c/d/>f/ (a/>g/)e/>c/|d/>c/d/>f/ (a/>g/)e/>c/|d/>f/e/>g/ f/>a/g/>f/|a/>g/e/>d/ c/>A/B/>c/|
d/>c/d/>f/ (a/>g/)e/>c/|d/>c/d/>f/ (a/>g/)e/>c/|d/>f/a/>f/ b/>g/e/>c/|ddd:|
|:A/>^G/|A/>c/e/>c/ A/>c/e/>a/|g/>f/g/>e/ d/>c/B/>A/|d/>f/a/>f/ d/>g/b/>a/|b/>g/e/>d/ c/>A/B/>c/|
d/>c/d/>f/ a/>g/e/>c/|d/>c/d/>f/ a/>g/e/>c/|d/>f/a/>f/ b/>g/e/>c/|ddd:|

